X:1
T:Title
%%score { ( 1 3 ) | ( 2 4 5 ) }
L:1/8
M:4/4
K:G
V:1 treble nm="Grand Piano"
V:3 treble 
V:2 bass 
V:4 bass 
V:5 bass 
V:1
 z4 z2[Q:1/4=108] [B,D]2 | [DB]>[DB] [DB]4 [B,G]2 | [Ec]>[DB] [DB]4 [DB]2 | %3
 [Fc]3 [Ec] [DB]2 [DA]2 |[M:3/4] [DB]6 |[M:1/4] [B,D]2 |[M:4/4] [DB]>[DB] [DB]4 [B,G]2 | %7
 [Ec]>[DB] [DB]4 d2 | ^c3 c B2 A2 |[M:7/8] [Fd]-[Fd]-[Fd]- [Fd]- [Fd]3 |[M:1/4] D2 | %11
[M:4/4] d>c B4 AG | G>F F4 FE | D>c c2- cGFE | [B,D]>[DB] [DB]4 [B,D]2 | d>c B4 [DA][DG] | %16
[M:5/4] [CE]>[Ge] [Ge]6 [Ge]2 | %17
[M:33/32] z/4 z/4 z/4 z/4 z/4[Q:1/4=101] z/4[Q:1/4=95] z/4[Q:1/4=88] z/4 z/4 z/4 z/4 z/4 z/4 z/4 z/4 z/4 z/4 z/4 z/4 z/4 z/4 z/4 z/ B/4-B/4-B/4-B/4-B/-<B/ z/4[Q:1/4=105][Q:1/4=98][Q:1/4=91][Q:1/4=84] | %18
[M:3/4] [B,DG]6 |] %19
V:2
 z4 z2 [G,,G,]2 | [G,,G,]>[G,,G,] [G,,G,]4 [G,,G,]2 | [G,,G,]>[G,,G,] [G,,G,]4 [G,,G,]2 | %3
 [D,A,]3 [D,F,] [D,G,]2 [D,F,]2 |[M:3/4] [G,,G,]6 |[M:1/4] [G,,G,]2 | %6
[M:4/4] [G,,G,]>[G,,G,] [G,,G,]4 [G,,G,]2 | [G,,G,]>[G,,G,] [G,,G,]4[K:treble] [G,B,G]2 | %8
 [A,G]3 [A,EG] [A,DG]2 [A,^CG]2 |[M:7/8][K:bass] D- D3 z z2 |[M:1/4] [D,C]2 | %11
[M:4/4] [G,B,D]>[G,A,D] [G,D]4 [G,CD][G,B,D] | [D,A,C]>[D,A,C] [D,A,C]4 [D,A,C][D,G,C] | %13
 [D,F,C]>[D,F,D] [D,F,D]2- [D,F,D][D,A,C][D,A,C][D,F,C] | [G,,G,]>[G,,G,] [G,,G,]4 [G,,G,]2 | %15
 [G,B,D]>[G,A,E] [G,D]4 [B,,G,][B,,G,] |[M:5/4] [C,G,]>[C,C] [C,C]6 [^C,_B,]2 | %17
[M:33/32] z/4 z/4 z/4 z/4 z/4 z/4 z/4 z/4 z/4 z/4 z/4 z/4 z/4 z/4 z/4 z/4 z/4 z/4 z/4 z/4 z/4 z/4 z/4 z/4 z/4 z/4 z/ D3/4 z/ | %18
[M:3/4] G,,6 |] %19
V:3
 x8 | x8 | x8 | x8 |[M:3/4] x6 |[M:1/4] x2 |[M:4/4] x8 | x8 | x8 |[M:7/8] z z z2 C3 |[M:1/4] x2 | %11
[M:4/4] x8 | x8 | x8 | x8 | x8 |[M:5/4] x10 | %17
[M:33/32] [Gd]/-<[Gd]/[GB]/-<[GB]/G/-<G/E/-<E/D/-<D/c/-<c/ z/ G/F/[CFA]3/4 |[M:3/4] x6 |] %19
V:4
 x8 | x8 | x8 | x8 |[M:3/4] x6 |[M:1/4] x2 |[M:4/4] x8 | x6[K:treble] x2 | x8 | %9
[M:7/8][K:bass] D,-D,-D,- D,- D,2- D,/ z/ |[M:1/4] x2 |[M:4/4] x8 | x8 | x8 | x8 | x8 | %16
[M:5/4] x10 | %17
[M:33/32] [D,B,]/-<[D,B,]/[D,D]/-<[D,D]/[D,B,D]/-<[D,B,D]/[D,G,B,]/-<[D,G,B,]/[D,F,C]/-<[D,F,C]/[D,F,D]/-<[D,F,D]/[G,D]/B,/ z/ D,3/4 | %18
[M:3/4] x6 |] %19
V:5
 x8 | x8 | x8 | x8 |[M:3/4] x6 |[M:1/4] x2 |[M:4/4] x8 | x6[K:treble] x2 | x8 |[M:7/8][K:bass] x7 | %10
[M:1/4] x2 |[M:4/4] x8 | x8 | x8 | x8 | x8 |[M:5/4] x10 | %17
[M:33/32] z/4 z/4 z/4 z/4 z/4 z/4 z/4 z/4 z/4 z/4 z/4 z/4 z/4 z/4 z/4 z/4 z/4 z/4 z/4 z/4 z/4 z/4 z/ D,/4-D,/4-D,/-<D,/ z/4 z/ | %18
[M:3/4] x6 |] %19

